main-pages/gulp-scss-starter/dist/img/default/offer/services11.svg

<svg width="26" height="26" viewBox="0 0 26 26" fill="none" xmlns="http://www.w3.org/2000/svg">
<circle cx="13.7508" cy="13.7498" r="5.45" stroke="#616161"/>
<circle cx="13.7504" cy="13.7504" r="2.35" stroke="#616161"/>
<path d="M13.7992 4.7002C8.77343 4.7002 4.69922 8.77441 4.69922 13.8002H4.79922C4.79922 8.82963 8.82866 4.8002 13.7992 4.8002V4.7002Z" stroke="#616161"/>
<path d="M13.8 1.02624C13.5356 1.00884 13.2688 1 13 1C6.37259 1 1 6.37259 1 13C1 13.2688 1.00884 13.5356 1.02624 13.8H1.12647C1.10892 13.5356 1.1 13.2688 1.1 13C1.1 6.42781 6.42781 1.1 13 1.1C13.2688 1.1 13.5356 1.10892 13.8 1.12647V1.02624Z" stroke="#616161"/>
<path d="M13.7508 1.0498V4.74981M1.05078 13.7498H4.75078" stroke="#616161"/>
<path d="M2.5 13.7999C2.52694 19.9901 7.55337 24.9999 13.7499 24.9999C19.9631 24.9999 24.9999 19.9631 24.9999 13.7499C24.9999 7.55336 19.9901 2.52694 13.7999 2.5V2.6C19.9349 2.62694 24.8999 7.60859 24.8999 13.7499C24.8999 19.9079 19.9079 24.8999 13.7499 24.8999C7.60859 24.8999 2.62694 19.9349 2.6 13.7999H2.5Z" stroke="#616161"/>
</svg>

<svg width="26" height="26" viewBox="0 0 26 26" fill="none" xmlns="http://www.w3.org/2000/svg"><circle cx="13.751" cy="13.75" r="5.45" stroke="#616161"/><circle cx="13.75" cy="13.75" r="2.35" stroke="#616161"/><path d="M13.8 4.7a9.1 9.1 0 00-9.1 9.1h.1a9 9 0 019-9v-.1z" stroke="#616161"/><path d="M13.8 1.026A12.182 12.182 0 0013 1C6.373 1 1 6.373 1 13c0 .269.009.536.026.8h.1A12.079 12.079 0 011.1 13C1.1 6.428 6.428 1.1 13 1.1c.269 0 .536.009.8.026v-.1zm-.05.024v3.7m-12.7 9h3.7m-2.25.05C2.527 19.99 7.553 25 13.75 25 19.963 25 25 19.963 25 13.75 25 7.553 19.99 2.527 13.8 2.5v.1c6.135.027 11.1 5.009 11.1 11.15 0 6.158-4.992 11.15-11.15 11.15-6.141 0-11.123-4.965-11.15-11.1h-.1z" stroke="#616161"/></svg>
